X: 4
T: Speed The Plough
R: reel
M: 4/4
L: 1/8
K: Dmaj
d3 A BA FB|AFFF EFDE|FAAF GABG|ABde ffef|
d3 B A3 D|FG AF (3FED B,D|FGAF GABG|1ABde fddc:|2ABde fdde|
|:faaa afdf|fgfg edBd|faaa afdB|ABde fdde|
fa aa afd2|g2 f2 e2 (3dBA|F2 AF GA BG|1ABde fdde:|2AB de fdd2||


Tune 901	Setting 28848

